svg/emoji_u26b0.svg

<svg enable-background="new 0 0 128 128" viewBox="0 0 128 128" xmlns="http://www.w3.org/2000/svg"><polygon points="12.02 18.77 10.53 33.8 16.63 73.37 86.02 123.38 86.02 92.05" fill="#AB664B"/><linearGradient id="b" x1="29.624" x2="98.916" y1="16.002" y2="98.675" gradientUnits="userSpaceOnUse"><stop stop-color="#CF8A59" offset="0"/><stop stop-color="#CC8756" offset=".2602"/><stop stop-color="#C17D4E" offset=".4871"/><stop stop-color="#AF6D41" offset=".7014"/><stop stop-color="#96562E" offset=".9069"/><stop stop-color="#884924" offset="1"/></linearGradient><polygon points="12.02 18.77 17.2 48.3 85.83 104.53 116.38 92.5 74.43 22.35 46.13 8.16" fill="url(#b)"/><polygon points="85.83 104.53 116.38 92.5 116.38 111.76 86.02 123.38" fill="#230A04"/><polygon points="16.87 46.42 16.87 73.37 86.02 123.38 85.83 104.53" fill="#6F3A26"/><linearGradient id="a" x1="33.084" x2="94.731" y1="19.267" y2="94.055" gradientUnits="userSpaceOnUse"><stop stop-color="#FFF3E0" offset="0"/><stop stop-color="#FCF0DD" offset=".257"/><stop stop-color="#F2E5D4" offset=".4811"/><stop stop-color="#E2D3C6" offset=".6928"/><stop stop-color="#CBBAB1" offset=".8958"/><stop stop-color="#BCAAA4" offset="1"/></linearGradient><path d="m46.61 15.69 22.83 11.41 37.29 60.97-21.32 8.33-61.78-52.39-3.17-20.09 26.15-8.23m0.16-1.98-28.37 8.93 3.52 22.33 63.13 53.55 24.4-9.53-38.72-63.3-23.96-11.98z" fill="url(#a)"/><path d="m26.46 71.25c-2.01-1.6-1.55-5.24-1.55-5.24l9.27 7.77c0.01 0-2.42 1.69-7.72-2.53z" fill="#AB664B"/><path d="m68.52 105.41c-2.01-1.6-1.55-5.24-1.55-5.24l9.27 7.77c0 0.01-2.43 1.7-7.72-2.53z" fill="#AB664B"/><g opacity=".2"><path d="m45.86 11.55 26.45 13.26 41.08 68.68v16.37l-26.92 10.3-67.07-48.32-5.85-37.96 1.25-12.67 31.06-9.66m0.27-3.23-34.11 10.61-1.48 15.03 6.1 39.58 69.39 50.01 30.36-11.62v-19.27l-41.96-70.14-28.3-14.2z" fill="#424242"/></g></svg>

<svg width="128" height="128" style="enable-background:new 0 0 128 128;" xmlns="http://www.w3.org/2000/svg" xmlns:xlink="http://www.w3.org/1999/xlink">
  <polygon points="12.02,18.77 10.53,33.8 16.63,73.37 86.02,123.38 86.02,92.05 " style="fill:#AB664B;"/>
  <linearGradient id="SVGID_1_" gradientUnits="userSpaceOnUse" x1="29.6235" x2="98.9162" y1="16.0016" y2="98.6749">
    <stop offset="0" style="stop-color:#CF8A59"/>
    <stop offset="0.2602" style="stop-color:#CC8756"/>
    <stop offset="0.4871" style="stop-color:#C17D4E"/>
    <stop offset="0.7014" style="stop-color:#AF6D41"/>
    <stop offset="0.9069" style="stop-color:#96562E"/>
    <stop offset="1" style="stop-color:#884924"/>
  </linearGradient>
  <polygon points="12.02,18.77 17.2,48.3 85.83,104.53 116.38,92.5 74.43,22.35 46.13,8.16 " style="fill:url(#SVGID_1_);"/>
  <polygon points="85.83,104.53 116.38,92.5 116.38,111.76 86.02,123.38 " style="fill:#230A04;"/>
  <polygon points="16.87,46.42 16.87,73.37 86.02,123.38 85.83,104.53 " style="fill:#6F3A26;"/>
  <linearGradient id="SVGID_2_" gradientUnits="userSpaceOnUse" x1="33.084" x2="94.7306" y1="19.2668" y2="94.0551">
    <stop offset="0" style="stop-color:#FFF3E0"/>
    <stop offset="0.257" style="stop-color:#FCF0DD"/>
    <stop offset="0.4811" style="stop-color:#F2E5D4"/>
    <stop offset="0.6928" style="stop-color:#E2D3C6"/>
    <stop offset="0.8958" style="stop-color:#CBBAB1"/>
    <stop offset="1" style="stop-color:#BCAAA4"/>
  </linearGradient>
  <path d="M46.61,15.69L69.44,27.1l37.29,60.97L85.41,96.4L23.63,44.01l-3.17-20.09L46.61,15.69 M46.77,13.71L18.4,22.64l3.52,22.33l63.13,53.55l24.4-9.53l-38.72-63.3L46.77,13.71L46.77,13.71z" style="fill:url(#SVGID_2_);"/>
  <path d="M26.46,71.25c-2.01-1.6-1.55-5.24-1.55-5.24l9.27,7.77C34.19,73.78,31.76,75.47,26.46,71.25z" style="fill:#AB664B;"/>
  <path d="M68.52,105.41c-2.01-1.6-1.55-5.24-1.55-5.24l9.27,7.77C76.24,107.95,73.81,109.64,68.52,105.41z" style="fill:#AB664B;"/>
  <g style="opacity:0.2;">
    <path d="M45.86,11.55l26.45,13.26l41.08,68.68v16.37l-26.92,10.3L19.4,71.84l-5.85-37.96l1.25-12.67 L45.86,11.55 M46.13,8.32L12.02,18.93l-1.48,15.03l6.1,39.58l69.39,50.01l30.36-11.62V92.66L74.43,22.52L46.13,8.32L46.13,8.32z" style="fill:#424242;"/>
  </g>
</svg>
